X:1
T:Io vorrei mutar vita
T:Giovanni Animuccia
T:Source : Secondo libro delle Laude spirituali a tre et a quattro voci---Roma---A.Gardano---1583. Editor : André Vierendeels (26/11/17). Notes : Original clefs : G2, C1, C3 Original note values have been halved Editorial accidentals above the staff Dotted brackets indicate black notes Music compiled by Francisco Soto de Langa D = discepolo, M = maestro
T:Io vorrei mutar vita
T:©
T:©
C:Giovanni Animuccia
Z:©
%%score [ 1 2 3 ]
L:1/8
Q:1/4=120
M:3/4
K:F
V:1 treble nm="Soprano" snm="S"
V:2 treble nm="Alto" snm="A"
V:3 treble-8 nm="Tenor" snm="T"
V:1
"^1)""^D:" A3 A A2 | A4 B2 | c4 c2 | c3 c c2 | c4 B2 | A4 A2 | d3 c d2 | B2 c4 | d4 c2 | B2 B2 c2 | %10
w: Io vor- rei|mu- tar|vi- ta;|gia lo mio|cor si|pen- te,|ma che di-|rà la|gen- te,|ma che di-|
w: L'huom sag- gio|di- rà|be- ne,|gli stol- ti|ri- de-|ran- no;|ma que- sti|che ti|fan- no,|ma que- sti|
 A4 A2 | G4 !fermata!G2 :| %12
w: ra la|gen- te?|
w: che ti|fan- no?|
V:2
"^2)""^1)""^M:" F3 F F2 | F4 G2 | A4 A2 | A3 A A2 | A4 G2 | F4 F2 | B3 A B2 | G2 A4 | B4 A2 | %9
w: Io vor- rei|mu- tar|vi- ta|gia lo mio|cor si|pen- te,|ma che di-|rà la|gen- te,|
w: Con- ver- ra|dhe tra|l'o- ro,|va- da sel-|vag- gio'&|fie- ro,|co- me can'|fo- re-|stie- ro,|
 G2 G2 E2 | F4 F2 | G4 !fermata!G2 :| %12
w: ma che di-|ra la|gen- te?|
w: co- me can'|fo- re-|stie- ro.|
V:3
"^3)""^1)""^4)""^D:""^M:" d3 d d2 | d4 g2 | f4 f2 | f3 f f2 | f4 g2 | d4 d2 | B3 f d2 | _e2 c4 | %8
w: Io vor- rei|mu- tar|vi- ta|gia lo mio|cor si|pen- te,|ma che di-|ra la|
w: E tu pas-|sa tra|buo- ni|se- gui lor|com- pa-|gni- a,|c'hau- rai grand'|al- le-|
 B4 f2 | _e2 e2 c2 |"^b" d4 d2 | G4 !fermata!G2 :| %12
w: gen- te,|ma che di-|ra la|gen- te?|
w: gri- a,|c'hau- rai grand'|al- le-|gri- a.|

